!!!OTL: Das faule Gretchen (225b), S. 485
!!!id: T0409
**kern
*clefG2
*k[]
*G:
{8dd
=1
8b
8dd
8dd
8dd
=2
8b
8dd
8dd}
=3
{8dd
=4
8dd
8dd
8dd
8dd
=5
4g}
8r
=6
{8dd
=7
8b
8dd
8dd
8dd
=8
8b
8dd
8dd}
=9
{8dd
=10
8dd
8dd
8dd
8dd
=11
4g}
8r
=12
{8a
=13
8b
8b
8a
8a
=14
4g}
8r
=15
{8a
=16
8b
8b
8a
8a
=17
4g}
4r
=18
{8dd
8ee
4dd
=19
8dd
8ee
8dd}
=20
{8a
=21
8b
8b
8a
8a
=22
4g}
8r
=23
{8a
=24
8b
8b
8a
8a
=25
4g}
8r
==
*-
!!!minrhy: 8
!!!meters: 2/4 ]  ZZ[9
!!!cut: Das faule Gretchen (225b), S. 485
!!!reg: Luxemburg
!!!trd: Singendes Volk, Esch-Alzette, 1937 posth.
!!!rhy1: X  XXXX  XXX
!!!rhy2: X  XXXX  X_0
!!!key: T0409  08  G 2/4 ]  ZZ[9
!!!mod: PENTATONIK HALBTONL. GONG]  AMBITUS[6
!!!kad: 515111511
!!!akz: 33_51_33_51_31_31_55_31_31_
!!!fot: 'a__b__a__b__c__c__bw_c__c__
!!!for: 'a__aw_a__aw_aw_aw_b__aw_aw_
!!!fok: 'V__\__V__\__\__\__-__\__\__
!! PHRAS[VORWIEGEND AUFTAKTIG]
!!!fkt: Berufslied
!!!bem: Esch-Alzette, fff Dominik M&uuml;ller,  1.6.1915
!! THILL; Mathias
!! PR[50] 2K[3] 2G[6] 3K[9] 3G[3] 4A[3] 4Ü[0] 5A[0] 6K[0] 6G[0]
!! 7K[0] 7G[0] 8A[3] MEHR[0] SI[26] ABS[34] SR[9] SP[18]
!! ST[10] 2k[3] 2g[6] 3k[6] 3g[0] 4d[3] 4ü[0] 5d[6] 6k[0] 6g[0]
!! 7k[0] 7g[0] 8d[0] mehr[0] si[24] dm[+2] sr[9] sp[15]
!! 1F[6] 2F[81] 3F[14] 4F[0] LF[0] 2P[0] 3P[0] 4P[0] TRI[0] DF[3] AB[36]
!! TF[0] U3K[0] U3[0] U4[0] U4Ü[0] U5[6] U6K[0] U6[0] U7K[0] U7[9]
!! N1[29] N2K[0] N2[9] N3K[0] N3[26] N4[0] N4Ü[0] N5[23] N6K[0] N6[0]
!!!n7k: 0] N7[0] O1[0] O2K[0] O2[0] O3K[0] O3[0] HÖ[0
!!!RNB: symbol: &uuml;  = u umlaut (UTF-8: Ã¼)
